packages/match-icons/product/svg/programmable-sms.svg

<svg fill="none" height="32" viewBox="0 0 32 32" width="32" xmlns="http://www.w3.org/2000/svg" xmlns:xlink="http://www.w3.org/1999/xlink"><clipPath id="a"><path d="m0 0h32v32h-32z"/></clipPath><g clip-path="url(#a)"><path d="m7.77 28.09c-.26545.0054-.52869-.0493-.77-.16-.3029-.1423-.55833-.3689-.7357-.6527-.17736-.2838-.26913-.6127-.2643-.9473v-4.33h-3.5c-.66304 0-1.29893-.2634-1.767767-.7322-.468841-.4689-.732233-1.1048-.732233-1.7678v-15c0-.66304.263392-1.29893.732233-1.76777.468837-.46884 1.104727-.73223 1.767767-.73223h27c.663 0 1.2989.26339 1.7678.73223.4688.46884.7322 1.10473.7322 1.76777v15c0 .663-.2634 1.2989-.7322 1.7678-.4689.4688-1.1048.7322-1.7678.7322h-14.12l-6.47 5.66c-.31669.2745-.72092.427-1.14.43zm-5.27-24.09c-.13261 0-.25979.05268-.35355.14645-.09377.09376-.14645.22094-.14645.35355v15c0 .1326.05268.2598.14645.3536.09376.0937.22094.1464.35355.1464h4.5c.13161-.0008.26207.0245.38391.0742.12183.0498.23265.1231.32609.2158.09268.0934.16601.2043.21577.3261.04977.1218.07499.2523.07423.3839v4.77l6.33-5.53c.1863-.1595.4248-.2449.67-.24h14.5c.1326 0 .2598-.0527.3536-.1464.0937-.0938.1464-.221.1464-.3536v-15c0-.13261-.0527-.25979-.1464-.35355-.0938-.09377-.221-.14645-.3536-.14645z" fill="#394762"/></g></svg>

<svg width="32" height="32" viewBox="0 0 32 32" fill="none" xmlns="http://www.w3.org/2000/svg">
<g clip-path="url(#clip0)">
<path d="M7.77 28.09C7.50455 28.0954 7.24131 28.0407 7 27.93C6.6971 27.7877 6.44167 27.5611 6.2643 27.2773C6.08694 26.9935 5.99517 26.6646 6 26.33V22H2.5C1.83696 22 1.20107 21.7366 0.732233 21.2678C0.263392 20.7989 0 20.163 0 19.5L0 4.5C0 3.83696 0.263392 3.20107 0.732233 2.73223C1.20107 2.26339 1.83696 2 2.5 2H29.5C30.163 2 30.7989 2.26339 31.2678 2.73223C31.7366 3.20107 32 3.83696 32 4.5V19.5C32 20.163 31.7366 20.7989 31.2678 21.2678C30.7989 21.7366 30.163 22 29.5 22H15.38L8.91 27.66C8.59331 27.9345 8.18908 28.087 7.77 28.09V28.09ZM2.5 4C2.36739 4 2.24021 4.05268 2.14645 4.14645C2.05268 4.24021 2 4.36739 2 4.5V19.5C2 19.6326 2.05268 19.7598 2.14645 19.8536C2.24021 19.9473 2.36739 20 2.5 20H7C7.13161 19.9992 7.26207 20.0245 7.38391 20.0742C7.50574 20.124 7.61656 20.1973 7.71 20.29C7.80268 20.3834 7.87601 20.4943 7.92577 20.6161C7.97554 20.7379 8.00076 20.8684 8 21V25.77L14.33 20.24C14.5163 20.0805 14.7548 19.9951 15 20H29.5C29.6326 20 29.7598 19.9473 29.8536 19.8536C29.9473 19.7598 30 19.6326 30 19.5V4.5C30 4.36739 29.9473 4.24021 29.8536 4.14645C29.7598 4.05268 29.6326 4 29.5 4H2.5Z" fill="#394762"/>
</g>
<defs>
<clipPath id="clip0">
<rect width="32" height="32" fill="white"/>
</clipPath>
</defs>
</svg>
